lib/logo_tmp/nrk-logo-nrk-yr-radio.svg

<svg width="55" height="24" viewBox="0 0 55 24" fill="none" xmlns="http://www.w3.org/2000/svg">
<path d="M0 17.9824V5.98351H3.93719V17.9824H0ZM9.29381 7.8932L11.5581 17.9824H7.24917L4.54549 5.98351H6.96218C7.51635 5.97632 8.05406 6.17167 8.4745 6.53281C8.89562 6.8788 9.18495 7.35912 9.29381 7.8932ZM12.1495 17.9824V5.98351H16.0867V17.9824H12.1495ZM19.0605 10.5465C18.6362 10.5507 18.2188 10.4397 17.8525 10.2254C17.4912 10.0165 17.1911 9.71638 16.9823 9.35502C16.7678 8.98875 16.6568 8.57118 16.661 8.14674C16.6561 7.72488 16.7672 7.3098 16.9823 6.94685C17.1933 6.58941 17.4931 6.29252 17.8525 6.08494C18.2189 5.87092 18.6362 5.75994 19.0605 5.76381C19.4822 5.75926 19.8971 5.87035 20.2602 6.08494C20.616 6.29433 20.9127 6.59098 21.122 6.94685C21.3368 7.3099 21.4479 7.72492 21.4433 8.14674C21.4473 8.57115 21.3363 8.98865 21.122 9.35502C20.9149 9.7148 20.6179 10.0147 20.2602 10.2254C19.8971 10.4404 19.4819 10.5515 19.0599 10.5465H19.0605ZM22.0516 17.9824V5.98351H25.9892V17.9824H22.0516ZM30.9737 12.5407C30.9848 12.5523 31.0693 12.6903 31.2272 12.9547C31.3851 13.2191 31.5906 13.5571 31.8439 13.9687C32.0974 14.3801 32.3649 14.8167 32.6463 15.2784C32.9278 15.7402 33.1926 16.1768 33.4408 16.5882C33.6881 16.9996 33.9697 17.4643 34.2857 17.9824H29.9598C29.6893 17.543 29.4441 17.1459 29.2245 16.791C29.0048 16.4361 28.7713 16.053 28.5238 15.6418C28.2758 15.2309 28.0306 14.831 27.7882 14.4419C27.5458 14.0528 27.3375 13.712 27.1633 13.4195C26.9883 13.1267 26.8671 12.9295 26.7997 12.828C26.6325 12.5759 26.5336 12.2847 26.5127 11.983C26.5294 11.6934 26.6226 11.4134 26.7828 11.1715C26.8504 11.0589 26.9743 10.8588 27.1545 10.5716C27.3348 10.2843 27.546 9.94348 27.7882 9.54915C28.0304 9.15482 28.2756 8.75203 28.5238 8.3408C28.772 7.92957 29.0056 7.54366 29.2245 7.18313C29.4445 6.82297 29.6897 6.42301 29.9598 5.98324H34.2857L30.9396 11.4419C30.8361 11.604 30.7777 11.7908 30.7706 11.983C30.7818 12.1847 30.8522 12.3787 30.9731 12.5407H30.9737Z" fill="white"/>
<path d="M49.4903 10.1274H48.2391C48.0517 10.1299 47.8728 10.2055 47.7403 10.338C47.6078 10.4705 47.5323 10.6496 47.5299 10.837V12.6511C47.7545 12.5517 47.9943 12.4907 48.2391 12.4709H49.6186C49.7837 12.479 49.9488 12.4537 50.1039 12.3967C50.2591 12.3397 50.4012 12.2521 50.5217 12.1391C50.6347 12.0184 50.7222 11.8763 50.7792 11.7211C50.8362 11.566 50.8615 11.401 50.8536 11.236C50.8614 11.0856 50.8341 10.9355 50.7737 10.7976C50.7134 10.6597 50.6217 10.5378 50.506 10.4415C50.2136 10.2232 49.8549 10.1122 49.4903 10.1274Z" fill="white"/>
<path d="M45.8569 3.12537C43.5079 3.12537 41.2551 4.05853 39.5941 5.71954C37.9331 7.38055 36.9999 9.63335 36.9999 11.9824C36.9999 14.3314 37.9331 16.5843 39.5941 18.2453C41.2551 19.9064 43.5079 20.8396 45.8569 20.8397C48.206 20.8397 50.4589 19.9065 52.12 18.2454C53.781 16.5844 54.7142 14.3315 54.7142 11.9824C54.7142 9.63333 53.7809 7.38051 52.1199 5.7195C50.4588 4.0585 48.206 3.12537 45.8569 3.12537ZM45.19 13.5872C45.1836 15.4794 43.8271 16.0811 43.3097 16.382L42.4182 15.3036L42.439 15.2933L42.4182 15.2687C42.705 15.1252 43.7698 14.5788 43.7698 13.7418V13.11C43.6233 13.4075 42.8645 13.7443 42.3485 13.7529H42.2916C41.5574 13.7539 40.8493 13.4803 40.3068 12.9856C40.0211 12.7088 39.7965 12.3754 39.6473 12.0067C39.4981 11.6381 39.4275 11.2423 39.4402 10.8448V8.93684H40.8241V10.8448C40.8241 11.9547 41.5917 12.359 42.3203 12.3692C42.9583 12.3604 43.7582 12.0839 43.7859 11.2289V8.93576H45.1886L45.19 13.5872ZM51.2003 14.7619C51.2767 14.8418 51.3726 14.9004 51.4785 14.932C51.5845 14.9636 51.6968 14.967 51.8045 14.9419L51.8025 16.0892H50.963C50.9534 16.0892 50.944 16.0908 50.9354 16.0908C50.9268 16.0908 50.9158 16.0908 50.9058 16.0892H50.8748V16.0875C50.7112 16.0739 50.5574 16.0041 50.4393 15.8901L48.806 13.8892H48.2405C48.0531 13.8917 47.874 13.9673 47.7415 14.0999C47.6091 14.2325 47.5336 14.4116 47.5312 14.599V16.0892H46.1127V10.8368C46.1134 10.2726 46.3378 9.73164 46.7367 9.33254C47.1355 8.93345 47.6763 8.70872 48.2405 8.70762H49.4917C50.1871 8.69074 50.8666 8.91691 51.4132 9.34719C51.6887 9.57723 51.9091 9.86614 52.0581 10.1927C52.2072 10.5192 52.281 10.875 52.2743 11.2338C52.2822 11.5856 52.2202 11.9354 52.0918 12.2629C51.9634 12.5904 51.7712 12.8892 51.5263 13.1418C51.2181 13.4473 50.8363 13.668 50.4178 13.7825C50.4178 13.7825 50.8967 14.4367 51.2003 14.7608V14.7619Z" fill="white"/>
</svg>

<svg xmlns="http://www.w3.org/2000/svg" viewBox="0 0 55 24"><path fill="#fff" d="M0 17.982V5.984h3.937v11.998H0ZM9.294 7.893l2.264 10.09H7.25l-2.704-12h2.417a2.276 2.276 0 0 1 1.513.55c.42.346.71.826.819 1.36Zm2.855 10.09v-12h3.938v12h-3.938Zm6.912-7.437a2.382 2.382 0 0 1-2.4-2.4 2.301 2.301 0 0 1 .321-1.2 2.41 2.41 0 0 1 3.278-.861c.356.21.653.506.862.862.215.363.326.778.321 1.2a2.35 2.35 0 0 1-.321 1.208 2.4 2.4 0 0 1-.862.87 2.302 2.302 0 0 1-1.2.322Zm2.99 7.436V5.984h3.938v11.998h-3.937Zm8.923-5.441c.01.011.095.15.253.414s.364.602.617 1.014a315.936 315.936 0 0 1 1.597 2.62c.247.41.529.875.845 1.393H29.96c-.27-.439-.516-.836-.736-1.191-.22-.355-.453-.738-.7-1.15-.248-.41-.493-.81-.736-1.2-.242-.388-.45-.729-.625-1.022-.175-.292-.296-.49-.363-.591a1.747 1.747 0 0 1-.287-.845c.016-.29.11-.57.27-.812.067-.112.191-.312.371-.6a182.106 182.106 0 0 0 1.37-2.23l.7-1.158.736-1.2h4.326l-3.346 5.459a1.08 1.08 0 0 0-.17.541c.012.202.082.396.203.558ZM49.49 10.127h-1.25a.719.719 0 0 0-.71.71v1.814c.224-.1.464-.16.71-.18h1.379a1.232 1.232 0 0 0 .903-.332 1.234 1.234 0 0 0 .332-.903.968.968 0 0 0-.348-.795 1.587 1.587 0 0 0-1.016-.314Z"/><path fill="#fff" d="M45.857 3.125a8.857 8.857 0 1 0 0 17.714 8.857 8.857 0 0 0 0-17.714Zm-.667 10.462c-.006 1.892-1.363 2.494-1.88 2.795l-.892-1.078.021-.01-.02-.025c.286-.144 1.35-.69 1.35-1.527v-.632c-.146.298-.904.634-1.42.643h-.057a2.94 2.94 0 0 1-1.985-.767 2.853 2.853 0 0 1-.867-2.141V8.937h1.384v1.908c0 1.11.768 1.514 1.496 1.524.638-.009 1.438-.285 1.466-1.14V8.936h1.403l.001 4.651Zm6.01 1.175a.637.637 0 0 0 .604.18l-.002 1.147h-.839l-.028.002c-.008 0-.02 0-.03-.002h-.03v-.002a.712.712 0 0 1-.436-.197l-1.633-2h-.566a.72.72 0 0 0-.709.709v1.49h-1.418v-5.252a2.132 2.132 0 0 1 2.127-2.13h1.252a2.99 2.99 0 0 1 1.921.64 2.399 2.399 0 0 1 .861 1.887 2.656 2.656 0 0 1-.748 1.908c-.308.305-.69.526-1.108.64 0 0 .479.655.782.979Z"/></svg>
